dist/svg/tv.svg

<!-- Generated by Trend Micro Style Portal -->
<svg version="1.1" xmlns="http://www.w3.org/2000/svg" width="16" height="16" viewBox="0 0 16 16">
  <title>TV</title>
  <path fill="rgb(34,34,34)" d="M15 1h-14c-0.552 0-1 0.448-1 1v0 10c0 0.552 0.448 1 1 1v0h14c0.552 0 1-0.448 1-1v0-10c0-0.552-0.448-1-1-1v0zM14 8.414v2.586h-12v-8h12zM4 14h8v1h-8z"></path>
</svg>

<svg width="16" height="16" viewBox="0 0 16 16" fill="rgb(34, 34, 34)" xmlns="http://www.w3.org/2000/svg"><title>TV</title><path d="M15 1H1C0.448 1 0 1.448 0 2V12C0 12.552 0.448 13 1 13H15C15.552 13 16 12.552 16 12V2C16 1.448 15.552 1 15 1ZM14 8.414V11H2V3H14V8.414ZM4 14H12V15H4V14Z" fill="rgb(34, 34, 34)" fill-opacity="1.00"/></svg>
